X: 23714
T: Lisnagun, The
R: jig
M: 6/8
K: Cmajor
cAG ~c3|cdg ~e3|cdg edc|dcA cAG|
cAG ~c3|cdg ~e3|cdg edc|dcA ~c3:|
~g3 age|deg ~e3|deg edc|dcA cAG|
~g3 age|deg ~e3|deg edc|dcA ~c3|
~g3 age|deg ~e3|deg edc|dcA cAG|
cAG ~c3|cdg ~e3|cdg edc|dcA ~c3||

